svg/uf0120-past.svg

<svg height="960" style="" width="1200" xmlns="http://www.w3.org/2000/svg"><path d="m312.72935 0 149.06486 248.80492c-241.8978 83.71087-275.39839 335.7805-279.77937 392.20441h-61.84746l122.74139 212.56069 122.74139-212.56069h-60.67076c4.88583-64.16915 48.14624-255.78514 190.99474-335.1601l104.33525 174.15076-132.72809 221.53808-154.85195 258.46193h619.40784l-154.85196-258.46193-132.73315-221.53808 117.22312-195.65586c298.3042 68.52047 318.0323 377.77397 318.0574 392.57974 0-3.74701-.1295-346.28331-292.83965-434.66685l145.14424-242.25702zm147.4824 135.38579h324.44812l-81.11583 135.38578-81.11077 135.38071-81.11075-135.38071zm162.22152 435.69137 53.09328 88.61219 53.08816 88.61726h-106.18144-106.18651l53.09325-88.61726z" style="stroke-width:2.59684"/></svg>

<svg xmlns="http://www.w3.org/2000/svg" width="1200" height="960">
    <path d="m312.73 0 149.064 248.805c-241.898 83.71-275.398 335.78-279.78 392.204h-61.847L242.91 853.57 365.65 641.01h-60.67c4.885-64.17 48.146-255.786 190.994-335.16L600.31 480 467.581 701.538 312.73 960h619.408L777.285 701.538 644.552 480l117.223-195.656c298.304 68.52 318.032 377.774 318.058 392.58 0-3.747-.13-346.283-292.84-434.667L932.137 0zm147.482 135.386H784.66l-81.116 135.386-81.11 135.38-81.111-135.38zm162.221 435.691 53.094 88.612 53.088 88.618H516.247l53.093-88.618z" style="stroke-width:2.59684"/>
</svg>
